Include/imtgui/Resources/Icons/Keyboard.svg

<?xml version="1.0" encoding="utf-8"?>
<!-- Generated by IcoMoon.io -->
<!DOCTYPE svg PUBLIC "-//W3C//DTD SVG 1.1//EN" "http://www.w3.org/Graphics/SVG/1.1/DTD/svg11.dtd">
<svg version="1.1" xmlns="http://www.w3.org/2000/svg" xmlns:xlink="http://www.w3.org/1999/xlink" width="16" height="16" viewBox="0 0 16 16">
<path fill="#444444" d="M15 5v7h-14v-7h14zM16 4h-16v9h16v-9z"></path>
<path fill="#444444" d="M4 10h8v1h-8v-1z"></path>
<path fill="#444444" d="M2 10h1v1h-1v-1z"></path>
<path fill="#444444" d="M13 10h1v1h-1v-1z"></path>
<path fill="#444444" d="M11 8h1v1h-1v-1z"></path>
<path fill="#444444" d="M9 8h1v1h-1v-1z"></path>
<path fill="#444444" d="M7 8h1v1h-1v-1z"></path>
<path fill="#444444" d="M5 8h1v1h-1v-1z"></path>
<path fill="#444444" d="M3 8h1v1h-1v-1z"></path>
<path fill="#444444" d="M10 6h1v1h-1v-1z"></path>
<path fill="#444444" d="M12 6v1h1v2h1v-3z"></path>
<path fill="#444444" d="M8 6h1v1h-1v-1z"></path>
<path fill="#444444" d="M6 6h1v1h-1v-1z"></path>
<path fill="#444444" d="M4 6h1v1h-1v-1z"></path>
<path fill="#444444" d="M2 6h1v1h-1v-1z"></path>
</svg>

<?xml version="1.0" encoding="UTF-8" standalone="no"?>
<!-- Generated by IcoMoon.io -->

<svg
   xmlns:dc="http://purl.org/dc/elements/1.1/"
   xmlns:cc="http://creativecommons.org/ns#"
   xmlns:rdf="http://www.w3.org/1999/02/22-rdf-syntax-ns#"
   xmlns:svg="http://www.w3.org/2000/svg"
   xmlns="http://www.w3.org/2000/svg"
   xmlns:sodipodi="http://sodipodi.sourceforge.net/DTD/sodipodi-0.dtd"
   xmlns:inkscape="http://www.inkscape.org/namespaces/inkscape"
   version="1.1"
   width="512"
   height="512"
   viewBox="0 0 512 512"
   id="svg32"
   sodipodi:docname="Keyboard.svg"
   inkscape:version="0.92.2 (5c3e80d, 2017-08-06)">
  <metadata
     id="metadata38">
    <rdf:RDF>
      <cc:Work
         rdf:about="">
        <dc:format>image/svg+xml</dc:format>
        <dc:type
           rdf:resource="http://purl.org/dc/dcmitype/StillImage" />
        <dc:title></dc:title>
      </cc:Work>
    </rdf:RDF>
  </metadata>
  <defs
     id="defs36" />
  <sodipodi:namedview
     pagecolor="#ffffff"
     bordercolor="#666666"
     borderopacity="1"
     objecttolerance="10"
     gridtolerance="10"
     guidetolerance="10"
     inkscape:pageopacity="0"
     inkscape:pageshadow="2"
     inkscape:window-width="2048"
     inkscape:window-height="1228"
     id="namedview34"
     showgrid="false"
     inkscape:zoom="0.65186407"
     inkscape:cx="459.61251"
     inkscape:cy="200.49347"
     inkscape:window-x="-8"
     inkscape:window-y="-8"
     inkscape:window-maximized="1"
     inkscape:current-layer="svg32" />
  <g
     id="g4549"
     transform="matrix(30,0,0,30,16,1.000002)"
     style="fill:#335777;fill-opacity:1;stroke-width:0.03333334">
    <path
       id="path2"
       d="m 15,5 v 7 H 1 V 5 Z M 16,4 H 0 v 9 h 16 z"
       inkscape:connector-curvature="0"
       style="fill:#335777;fill-opacity:1;stroke-width:0.03333334" />
    <path
       id="path4"
       d="m 4,10 h 8 v 1 H 4 Z"
       inkscape:connector-curvature="0"
       style="fill:#335777;fill-opacity:1;stroke-width:0.03333334" />
    <path
       id="path6"
       d="m 2,10 h 1 v 1 H 2 Z"
       inkscape:connector-curvature="0"
       style="fill:#335777;fill-opacity:1;stroke-width:0.03333334" />
    <path
       id="path8"
       d="m 13,10 h 1 v 1 h -1 z"
       inkscape:connector-curvature="0"
       style="fill:#335777;fill-opacity:1;stroke-width:0.03333334" />
    <path
       id="path10"
       d="m 11,8 h 1 v 1 h -1 z"
       inkscape:connector-curvature="0"
       style="fill:#335777;fill-opacity:1;stroke-width:0.03333334" />
    <path
       id="path12"
       d="m 9,8 h 1 V 9 H 9 Z"
       inkscape:connector-curvature="0"
       style="fill:#335777;fill-opacity:1;stroke-width:0.03333334" />
    <path
       id="path14"
       d="M 7,8 H 8 V 9 H 7 Z"
       inkscape:connector-curvature="0"
       style="fill:#335777;fill-opacity:1;stroke-width:0.03333334" />
    <path
       id="path16"
       d="M 5,8 H 6 V 9 H 5 Z"
       inkscape:connector-curvature="0"
       style="fill:#335777;fill-opacity:1;stroke-width:0.03333334" />
    <path
       id="path18"
       d="M 3,8 H 4 V 9 H 3 Z"
       inkscape:connector-curvature="0"
       style="fill:#335777;fill-opacity:1;stroke-width:0.03333334" />
    <path
       id="path20"
       d="m 10,6 h 1 v 1 h -1 z"
       inkscape:connector-curvature="0"
       style="fill:#335777;fill-opacity:1;stroke-width:0.03333334" />
    <path
       id="path22"
       d="m 12,6 v 1 h 1 v 2 h 1 V 6 Z"
       inkscape:connector-curvature="0"
       style="fill:#335777;fill-opacity:1;stroke-width:0.03333334" />
    <path
       id="path24"
       d="M 8,6 H 9 V 7 H 8 Z"
       inkscape:connector-curvature="0"
       style="fill:#335777;fill-opacity:1;stroke-width:0.03333334" />
    <path
       id="path26"
       d="M 6,6 H 7 V 7 H 6 Z"
       inkscape:connector-curvature="0"
       style="fill:#335777;fill-opacity:1;stroke-width:0.03333334" />
    <path
       id="path28"
       d="M 4,6 H 5 V 7 H 4 Z"
       inkscape:connector-curvature="0"
       style="fill:#335777;fill-opacity:1;stroke-width:0.03333334" />
    <path
       id="path30"
       d="M 2,6 H 3 V 7 H 2 Z"
       inkscape:connector-curvature="0"
       style="fill:#335777;fill-opacity:1;stroke-width:0.03333334" />
  </g>
</svg>
